src/assets/mobile/weproject.svg

<svg width="97" height="24" viewBox="0 0 97 24" fill="none" xmlns="http://www.w3.org/2000/svg">
<path d="M1.39013 0.136224C0.859564 0.487396 0.843487 0.902419 1.32582 2.33903C1.58306 3.12119 2.98182 7.39911 4.44489 11.8367C7.37102 20.6798 7.17809 20.2808 8.48038 20.2808C9.54151 20.2808 9.65405 20.0573 11.8567 13.4169C12.9821 10.0329 13.9468 7.22353 14.0111 7.15968C14.0593 7.09583 15.0722 9.90521 16.2459 13.4169C17.4196 16.9127 18.4968 19.8657 18.6415 19.9934C18.9952 20.2808 20.5386 20.2648 20.8441 19.9615C21.0531 19.738 27.2109 1.26955 27.2109 0.838569C27.2109 0.726832 27.0662 0.503359 26.8893 0.327772C26.6321 0.0723742 26.3588 0.00852462 25.3619 0.00852462C24.3008 0.00852462 24.14 0.0404494 23.931 0.359697C23.8024 0.567208 22.8217 3.52025 21.7445 6.95216C20.6673 10.3681 19.7508 13.2094 19.7187 13.2413C19.7026 13.2573 18.7219 10.416 17.5643 6.88832C16.4067 3.37659 15.3456 0.37566 15.2169 0.247961C14.8471 -0.103212 13.1911 -0.0712873 12.8696 0.279885C12.7249 0.439509 11.6798 3.39255 10.5544 6.82447C9.42897 10.2723 8.44823 13.0977 8.39999 13.0977C8.35176 13.0977 7.41926 10.2723 6.32597 6.82447C5.23269 3.39255 4.23588 0.439509 4.09118 0.279885C3.89825 0.0723742 3.59277 0.00852462 2.7085 0.00852462C2.08147 0.00852462 1.48659 0.0723742 1.39013 0.136224Z" fill="#090C21"/>
<path d="M28.8186 0.327774C28.4971 0.647022 28.4971 0.854533 28.4971 10.0489C28.4971 19.0676 28.5132 19.4667 28.8026 19.8179L29.108 20.201L35.2176 20.2329C41.1663 20.2808 41.3271 20.2648 41.7451 19.9456C42.131 19.6582 42.1631 19.5146 42.1631 18.5249C42.1631 17.5352 42.131 17.4075 41.7451 17.1042C41.3271 16.785 41.1341 16.769 36.6002 16.769H31.8734V11.6451L35.4587 11.6611C37.4202 11.677 39.1566 11.6291 39.3013 11.5813C39.6068 11.4695 39.9122 10.7033 39.9122 10.0648C39.9122 9.42634 39.6068 8.66014 39.3013 8.54841C39.1566 8.50052 37.4202 8.45263 35.4587 8.46859L31.8734 8.48456V3.36063H36.6967C42.4204 3.36063 42.1631 3.44044 42.1631 1.63669C42.1631 -0.103211 42.6294 0.00852599 35.3623 0.00852599C29.3492 0.00852599 29.1241 0.0244884 28.8186 0.327774Z" fill="#090C21"/>
<path d="M70.283 8.53244C69.8007 8.75591 69.4469 9.49018 69.5756 9.90521C69.865 10.8151 70.8939 11.1183 71.6496 10.5277C72.775 9.64981 71.5692 7.89394 70.283 8.53244Z" fill="#090C21"/>
<path d="M92.8882 9.88924L92.0843 10.1766L92.0361 11.1503C91.9878 12.0761 91.9718 12.1399 91.602 12.1399C91.2161 12.1399 91.2 12.1878 91.2 13.0179C91.2 13.832 91.2322 13.8958 91.5859 13.8958C91.9718 13.8958 91.9718 13.8958 92.0361 16.0028C92.0843 17.8704 92.1325 18.2057 92.4541 18.7643C92.9043 19.5465 93.6117 20.0573 94.5763 20.2648C95.9912 20.584 96.0233 20.5681 96.0233 19.4826V18.5249H95.4606C95.0587 18.5249 94.7532 18.3972 94.496 18.1258C94.1101 17.7587 94.094 17.647 94.094 15.8113V13.8958H94.8818C95.7661 13.8958 95.8626 13.7841 95.8626 12.7625V12.1399H94.094V10.8629C94.094 9.42633 94.1262 9.45826 92.8882 9.88924Z" fill="#090C21"/>
<path d="M47.0668 12.1719C46.8096 12.2676 46.3755 12.4911 46.1343 12.6667C45.8771 12.8263 45.652 12.954 45.6359 12.9221C45.6037 12.8902 45.4912 12.6986 45.3947 12.4911C45.25 12.2357 45.0571 12.1399 44.6552 12.1399H44.0924V23.9521H46.0218V19.6423L46.6649 19.9615C48.6746 20.9831 51.1988 20.169 52.1956 18.1897C52.9995 16.5615 52.6458 14.231 51.3917 13.0658C50.3467 12.108 48.4173 11.709 47.0668 12.1719ZM49.2051 13.9597C50.0733 14.4066 50.411 14.9493 50.4914 15.955C50.6039 17.5352 49.7679 18.5249 48.3048 18.5249C46.89 18.5249 46.0218 17.647 46.0218 16.1944C46.0218 14.4385 47.7742 13.2254 49.2051 13.9597Z" fill="#090C21"/>
<path d="M57.8389 12.2517C57.5816 12.3794 57.0832 12.7465 56.7616 13.0658C56.424 13.385 56.1346 13.6085 56.1025 13.5606C56.0542 13.5287 55.9738 13.2094 55.8774 12.8582C55.7488 12.2357 55.7166 12.2198 54.977 12.1719L54.2214 12.124V20.2808H56.1507V15.3963L56.6813 14.8855C57.2601 14.3268 58.1926 13.8958 58.8035 13.8958C59.1894 13.8958 59.2055 13.8639 59.2055 12.9381C59.2055 11.9963 59.1894 11.9803 58.7714 11.9803C58.5141 11.9963 58.1122 12.108 57.8389 12.2517Z" fill="#090C21"/>
<path d="M62.3728 12.2038C60.363 12.9221 59.1894 15.0451 59.6717 17.1521C59.9289 18.3174 60.6524 19.2272 61.7779 19.8657C62.5335 20.2808 62.8069 20.3606 63.868 20.3606C65.2667 20.3606 66.2153 20.0094 67.0674 19.1474C69.2218 17.0244 68.3536 13.1935 65.4918 12.2198C64.6236 11.9324 63.1927 11.9165 62.3728 12.2038ZM64.9934 14.0874C65.7169 14.5822 66.1028 15.1409 66.1832 15.8432C66.2957 16.7371 66.0224 17.4873 65.3793 18.0301C64.913 18.4451 64.6879 18.5249 64.0127 18.5249C62.9676 18.5249 62.3406 18.1578 61.9387 17.3277C61.5206 16.4657 61.5367 15.7315 61.9869 14.9334C62.63 13.8 63.9966 13.4169 64.9934 14.0874Z" fill="#090C21"/>
<path d="M76.0549 12.2198C74.5757 12.7625 73.5467 14.1512 73.402 15.7953C73.0644 19.5305 77.5179 21.7812 80.7174 19.4826L81.3927 19.0038L80.7495 18.4132L80.0904 17.8385L79.4794 18.1737C78.3057 18.8282 76.698 18.5728 75.9423 17.631C75.2671 16.785 75.3314 16.769 78.6594 16.769H81.7142V16.1305C81.7142 15.3484 81.2319 14.0554 80.6852 13.3371C80.0582 12.539 78.8041 11.9803 77.6305 11.9963C77.0838 11.9963 76.3764 12.108 76.0549 12.2198ZM78.4665 13.8C78.8685 14.0075 79.4633 14.8057 79.4633 15.1249C79.4633 15.2845 78.9649 15.3324 77.534 15.3324C75.2992 15.3324 75.1706 15.2207 76.2478 14.1831C76.7784 13.7043 77.0195 13.5766 77.5019 13.5766C77.8234 13.5925 78.2575 13.6723 78.4665 13.8Z" fill="#090C21"/>
<path d="M85.2513 12.3155C82.3734 13.6085 81.7785 17.3756 84.1419 19.3709C85.7015 20.6958 88.2417 20.7596 89.753 19.5146C90.3801 18.9878 90.3318 18.8441 89.3832 18.1737L88.917 17.8385L88.306 18.1897C87.5343 18.6207 86.4732 18.6207 85.7818 18.2057C84.3509 17.3437 84.4313 14.9653 85.9265 14.0554C86.634 13.6404 87.2771 13.6564 88.2256 14.1352L89.0135 14.5183L90.3801 13.2573L89.8495 12.8582C88.6437 11.9484 86.6018 11.709 85.2513 12.3155Z" fill="#090C21"/>
<path d="M69.8167 16.6733C69.8167 20.9671 69.8007 21.2225 69.4952 21.6056C69.3183 21.8291 68.9485 22.0526 68.6913 22.1164C68.225 22.2122 68.209 22.2601 68.209 23.1061V24L69.045 23.9042C70.09 23.7765 70.9904 23.1859 71.4566 22.308C71.8104 21.6535 71.8264 21.4779 71.8747 16.8808L71.9229 12.1399H69.8167V16.6733Z" fill="#090C21"/>
</svg>

<svg xmlns="http://www.w3.org/2000/svg" width="97" height="24" fill="none"><path fill="#090C21" d="M1.39.136C.86.487.843.902 1.326 2.34c.257.782 1.656 5.06 3.119 9.498C7.37 20.68 7.178 20.28 8.48 20.28c1.062 0 1.174-.224 3.377-6.864 1.125-3.384 2.09-6.193 2.154-6.257.048-.064 1.061 2.745 2.235 6.257 1.174 3.496 2.25 6.449 2.396 6.576.353.288 1.897.272 2.202-.031.21-.224 6.367-18.692 6.367-19.123 0-.112-.145-.336-.322-.511-.257-.256-.53-.32-1.527-.32C24.3.009 24.14.04 23.93.36c-.129.207-1.11 3.16-2.187 6.592-1.077 3.416-1.993 6.257-2.025 6.29-.016.015-.997-2.826-2.155-6.354-1.157-3.511-2.218-6.512-2.347-6.64-.37-.351-2.026-.32-2.347.032-.145.16-1.19 3.113-2.316 6.544-1.125 3.448-2.106 6.274-2.154 6.274s-.98-2.826-2.074-6.274C5.233 3.393 4.236.44 4.091.28 3.898.072 3.593.009 2.708.009c-.627 0-1.221.063-1.318.127M28.819.328c-.322.319-.322.527-.322 9.72 0 9.02.016 9.419.306 9.77l.305.383 6.11.032c5.948.048 6.11.032 6.527-.287.386-.288.418-.431.418-1.421s-.032-1.117-.418-1.42c-.418-.32-.61-.336-5.145-.336h-4.727v-5.124l3.586.016c1.961.016 3.698-.032 3.842-.08.306-.111.611-.878.611-1.516 0-.639-.305-1.405-.61-1.517-.145-.047-1.882-.095-3.843-.08l-3.586.017V3.36h4.824c5.723 0 5.466.08 5.466-1.724 0-1.74.466-1.628-6.8-1.628-6.014 0-6.239.015-6.544.319M70.283 8.532c-.482.224-.836.958-.707 1.373.289.91 1.318 1.213 2.074.623 1.125-.878-.08-2.634-1.367-1.996M92.888 9.89l-.804.287-.048.973c-.048.926-.064.99-.434.99-.386 0-.402.048-.402.878 0 .814.032.878.386.878.386 0 .386 0 .45 2.107.048 1.867.096 2.203.418 2.761.45.783 1.158 1.293 2.122 1.5 1.415.32 1.447.304 1.447-.781v-.958h-.562c-.402 0-.708-.128-.965-.4-.386-.366-.402-.478-.402-2.314v-1.915h.788c.884 0 .98-.112.98-1.134v-.622h-1.768v-1.277c0-1.437.032-1.405-1.206-.974M47.067 12.172a4.8 4.8 0 0 0-.933.495c-.257.16-.482.287-.498.255a2.5 2.5 0 0 1-.241-.43c-.145-.256-.338-.352-.74-.352h-.563v11.812h1.93v-4.31l.643.32c2.01 1.021 4.534.207 5.53-1.772.804-1.629.45-3.959-.803-5.124-1.045-.958-2.975-1.357-4.325-.894m2.138 1.788c.868.447 1.206.99 1.286 1.995.113 1.58-.723 2.57-2.186 2.57-1.415 0-2.283-.878-2.283-2.33 0-1.757 1.752-2.97 3.183-2.235M57.839 12.252c-.257.127-.756.494-1.077.814-.338.319-.627.542-.66.495-.048-.032-.128-.352-.225-.703-.128-.622-.16-.638-.9-.686l-.756-.048v8.157h1.93v-4.885l.53-.51c.58-.56 1.512-.99 2.123-.99.385 0 .401-.032.401-.958 0-.942-.016-.958-.434-.958a2.7 2.7 0 0 0-.932.272M62.373 12.204a4.25 4.25 0 0 0-2.701 4.948c.257 1.165.98 2.075 2.106 2.714.755.415 1.029.495 2.09.495 1.399 0 2.347-.352 3.2-1.214 2.154-2.123 1.286-5.953-1.576-6.927-.868-.288-2.3-.304-3.12-.016m2.62 1.883c.724.495 1.11 1.054 1.19 1.756.113.894-.16 1.644-.804 2.187-.466.415-.691.495-1.366.495-1.045 0-1.672-.367-2.074-1.197-.418-.862-.402-1.596.048-2.395.643-1.133 2.01-1.516 3.006-.846M76.055 12.22c-1.48.542-2.508 1.931-2.653 3.575-.338 3.736 4.116 5.986 7.315 3.688l.676-.48-.644-.59-.659-.575-.61.336c-1.174.654-2.782.399-3.538-.543-.675-.846-.61-.862 2.717-.862h3.055v-.638c0-.783-.482-2.076-1.029-2.794-.627-.798-1.88-1.357-3.055-1.34-.546 0-1.254.111-1.575.223m2.411 1.58c.403.207.997 1.006.997 1.325 0 .16-.498.207-1.929.207-2.235 0-2.363-.111-1.286-1.149.53-.479.771-.606 1.254-.606.321.015.755.095.965.223M85.251 12.316c-2.878 1.292-3.473 5.06-1.11 7.055 1.56 1.325 4.1 1.389 5.612.144.627-.527.579-.67-.37-1.341l-.466-.335-.611.35c-.772.432-1.833.432-2.524.017-1.431-.862-1.35-3.24.145-4.15.707-.416 1.35-.4 2.299.08l.787.382 1.367-1.26-.53-.4c-1.206-.91-3.248-1.149-4.599-.543M69.817 16.673c0 4.294-.016 4.55-.322 4.933-.177.223-.547.447-.804.51-.466.096-.482.144-.482.99V24l.836-.096c1.045-.128 1.945-.718 2.412-1.596.353-.654.37-.83.418-5.427l.048-4.741h-2.106z"/></svg>
